X: 445
T: Tiantian jianmian tiantian xiang
L: 1/8
M: 2/4
K: D
(3z B B (3B A F [I:setbarnb 1]| 
F/ E/E2E | 
e2d e | 
B4 | 
(3z B B (3B A F | 
F/ E/E2E | 
A2F E | 
e4 |]

@@@ Tune index: 9319
